assets/img/i-driver-hov.svg

<?xml version="1.0" encoding="UTF-8" standalone="no"?>
<svg
   xmlns:dc="http://purl.org/dc/elements/1.1/"
   xmlns:cc="http://creativecommons.org/ns#"
   xmlns:rdf="http://www.w3.org/1999/02/22-rdf-syntax-ns#"
   xmlns:svg="http://www.w3.org/2000/svg"
   xmlns="http://www.w3.org/2000/svg"
   viewBox="0 0 32.893333 24.68"
   height="24.68"
   width="32.893333"
   xml:space="preserve"
   id="svg2"
   version="1.1"><metadata
     id="metadata8"><rdf:RDF><cc:Work
         rdf:about=""><dc:format>image/svg+xml</dc:format><dc:type
           rdf:resource="http://purl.org/dc/dcmitype/StillImage" /></cc:Work></rdf:RDF></metadata><defs
     id="defs6"><clipPath
       id="clipPath20"
       clipPathUnits="userSpaceOnUse"><path
         id="path18"
         d="M 0,0 H 246.672 V 185 H 0 Z" /></clipPath></defs><g
     transform="matrix(1.3333333,0,0,-1.3333333,0,24.68)"
     id="g10"><g
       transform="scale(0.1)"
       id="g12"><g
         id="g14"><g
           clip-path="url(#clipPath20)"
           id="g16"><path
             id="path22"
             style="fill:#f1482a;fill-opacity:1;fill-rule:nonzero;stroke:none"
             d="m 246.672,21.5703 h -20.563 c 0,19.5156 -14.382,35.9453 -32.886,40.043 -5.141,1.0273 -8.227,5.1445 -8.227,10.2734 0,3.086 1.027,6.1719 4.113,8.2149 9.243,7.1992 16.446,19.5117 16.446,32.8714 0,19.496 -13.36,36.968 -37.004,41.07 -1.028,3.086 -2.043,6.156 -4.098,9.242 -2.058,4.113 -4.117,8.215 -7.203,11.301 35.973,4.098 68.859,-24.645 68.859,-61.613 0,-13.3597 -5.14,-26.6996 -13.355,-36.973 20.543,-10.2695 33.918,-31.8438 33.918,-54.4297 z M 133.605,123.242 c 0,22.586 -18.484,41.07 -41.1011,41.07 -22.6133,0 -41.1172,-18.484 -41.1172,-41.07 0,-22.597 18.5039,-41.0858 41.1172,-41.0858 22.6171,0 41.1011,18.4888 41.1011,41.0858 z M 184.996,0 H 164.453 C 159.309,34.9141 128.477,61.6133 92.5039,61.6133 56.5312,61.6133 25.7031,34.9141 20.5586,0 H 0 C 4.11328,32.8711 25.7031,60.6016 55.5039,73.9414 40.0898,85.2422 30.8438,103.73 30.8438,123.242 c 0,33.887 27.746,61.613 61.6601,61.613 33.9181,0 61.6601,-27.726 61.6601,-61.613 0,-19.512 -9.242,-37.9998 -24.656,-49.3006 C 159.309,60.6016 180.895,32.8711 184.996,0 v 0" /></g></g></g></g></svg>

<svg xmlns="http://www.w3.org/2000/svg" viewBox="0 0 32.893333 24.68" height="24.68" width="32.893"><defs><clipPath id="a"><path d="M0 0h246.672v185H0z"/></clipPath></defs><g clip-path="url(#a)" transform="matrix(.13333 0 0 -.13333 0 24.68)"><path d="M246.672 21.57h-20.563c0 19.516-14.382 35.946-32.886 40.043-5.141 1.028-8.227 5.145-8.227 10.274 0 3.086 1.027 6.172 4.113 8.215 9.243 7.199 16.446 19.511 16.446 32.871 0 19.496-13.36 36.968-37.004 41.07-1.028 3.086-2.043 6.156-4.098 9.242-2.058 4.113-4.117 8.215-7.203 11.301 35.973 4.098 68.859-24.645 68.859-61.613 0-13.36-5.14-26.7-13.355-36.973 20.543-10.27 33.918-31.844 33.918-54.43zM133.605 123.242c0 22.586-18.484 41.07-41.101 41.07-22.613 0-41.117-18.484-41.117-41.07 0-22.597 18.504-41.086 41.117-41.086 22.617 0 41.101 18.489 41.101 41.086zM184.996 0h-20.543c-5.144 34.914-35.976 61.613-71.95 61.613-35.972 0-66.8-26.699-71.944-61.613H0c4.113 32.871 25.703 60.602 55.504 73.941-15.414 11.301-24.66 29.789-24.66 49.301 0 33.887 27.746 61.613 61.66 61.613 33.918 0 61.66-27.726 61.66-61.613 0-19.512-9.242-38-24.656-49.3 29.801-13.34 51.387-41.07 55.488-73.942" fill="#f1482a"/></g></svg>
